assets/svgs/travel-grey/TravelGrey6.svg

<svg xmlns="http://www.w3.org/2000/svg" data-name="Layer 1" viewBox="0 0 128 128"><path d="M95.54 53.1v-3.917h5.73a1.25 1.25 0 000-2.5h-5.73V40.69a13.118 13.118 0 00-13.1-13.1H45.562a13.118 13.118 0 00-13.1 13.1v5.993h-5.733a1.25 1.25 0 000 2.5h5.731V53.1A17.611 17.611 0 0018.5 70.3v11.4a6.187 6.187 0 006.18 6.18h2.513v3.509a9.02 9.02 0 1018.04 0v-3.505h37.535v3.509a9.02 9.02 0 1018.04 0v-3.509h2.513a6.187 6.187 0 006.18-6.18V70.3A17.611 17.611 0 0095.54 53.1zm-60.58-.38V40.69a10.614 10.614 0 0110.6-10.6h36.877a10.614 10.614 0 0110.6 10.6v12.027zm7.772 38.676a6.52 6.52 0 11-13.04 0v-3.512h13.04zm55.575 0a6.52 6.52 0 11-13.04 0v-3.512h13.04zM107 81.7a3.684 3.684 0 01-3.68 3.68H24.68A3.684 3.684 0 0121 81.7V70.3a15.1 15.1 0 0115.084-15.083h55.832A15.1 15.1 0 01107 70.3z"/><path d="M40.251 66.306a7.791 7.791 0 107.791 7.794 7.8 7.8 0 00-7.791-7.794zm0 13.082a5.291 5.291 0 115.291-5.288 5.3 5.3 0 01-5.291 5.288zM87.749 66.306A7.791 7.791 0 1095.54 74.1a7.8 7.8 0 00-7.791-7.794zm0 13.082A5.291 5.291 0 1193.04 74.1a5.3 5.3 0 01-5.291 5.288z"/></svg>

<svg id="Layer_1" data-name="Layer 1" xmlns="http://www.w3.org/2000/svg" viewBox="0 0 128 128"><title>CAR</title><path d="M95.54,53.1V49.183h5.73a1.25,1.25,0,0,0,0-2.5H95.54V40.69a13.118,13.118,0,0,0-13.1-13.1H45.562a13.118,13.118,0,0,0-13.1,13.1v5.993H26.729a1.25,1.25,0,0,0,0,2.5H32.46V53.1A17.611,17.611,0,0,0,18.5,70.3V81.7a6.187,6.187,0,0,0,6.18,6.18h2.513v3.509a9.02,9.02,0,1,0,18.04,0V87.884H82.768v3.509a9.02,9.02,0,1,0,18.04,0V87.884h2.513a6.187,6.187,0,0,0,6.18-6.18V70.3A17.611,17.611,0,0,0,95.54,53.1Zm-60.58-.38V40.69a10.614,10.614,0,0,1,10.6-10.6H82.437a10.614,10.614,0,0,1,10.6,10.6V52.717Zm7.772,38.676a6.52,6.52,0,1,1-13.04,0V87.884h13.04Zm55.575,0a6.52,6.52,0,1,1-13.04,0V87.884h13.04ZM107,81.7a3.684,3.684,0,0,1-3.68,3.68H24.68A3.684,3.684,0,0,1,21,81.7V70.3A15.1,15.1,0,0,1,36.084,55.217H91.916A15.1,15.1,0,0,1,107,70.3Z"/><path d="M40.251,66.306A7.791,7.791,0,1,0,48.042,74.1,7.8,7.8,0,0,0,40.251,66.306Zm0,13.082A5.291,5.291,0,1,1,45.542,74.1,5.3,5.3,0,0,1,40.251,79.388Z"/><path d="M87.749,66.306A7.791,7.791,0,1,0,95.54,74.1,7.8,7.8,0,0,0,87.749,66.306Zm0,13.082A5.291,5.291,0,1,1,93.04,74.1,5.3,5.3,0,0,1,87.749,79.388Z"/></svg>
